icons/logo.svg

<svg width="54" height="12" viewBox="0 0 54 12" fill="none" xmlns="http://www.w3.org/2000/svg">
<path d="M4.836 9.744L4.572 11.16H3.252C2.772 11.16 2.436 11.064 2.244 10.872C2.052 10.688 1.956 10.424 1.956 10.08C1.956 9.976 1.964 9.872 1.98 9.768C1.996 9.664 2.016 9.556 2.04 9.444L2.136 9C1.736 8.888 1.372 8.7 1.044 8.436C0.724 8.164 0.468 7.804 0.276 7.356C0.092 6.9 2.98023e-08 6.352 2.98023e-08 5.712C2.98023e-08 5.48 0.012 5.256 0.036 5.04C0.06 4.816 0.092 4.596 0.132 4.38C0.244 3.812 0.424 3.292 0.672 2.82C0.928 2.34 1.236 1.924 1.596 1.572C1.964 1.212 2.376 0.935997 2.832 0.743996C3.296 0.543996 3.792 0.443996 4.32 0.443996C4.856 0.443996 5.352 0.563997 5.808 0.803997C6.264 1.036 6.632 1.404 6.912 1.908C7.192 2.404 7.332 3.048 7.332 3.84C7.332 4.064 7.32 4.288 7.296 4.512C7.272 4.736 7.24 4.956 7.2 5.172C7.096 5.676 6.936 6.148 6.72 6.588C6.512 7.028 6.252 7.42 5.94 7.764C5.628 8.108 5.276 8.392 4.884 8.616C4.5 8.84 4.084 8.988 3.636 9.06L3.504 9.744H4.836ZM4.2 1.992C3.832 1.992 3.504 2.076 3.216 2.244C2.928 2.412 2.688 2.656 2.496 2.976C2.312 3.296 2.172 3.684 2.076 4.14L1.824 5.4C1.8 5.52 1.784 5.632 1.776 5.736C1.768 5.84 1.764 5.936 1.764 6.024C1.764 6.528 1.876 6.912 2.1 7.176C2.332 7.432 2.676 7.56 3.132 7.56C3.508 7.56 3.836 7.476 4.116 7.308C4.404 7.14 4.644 6.896 4.836 6.576C5.028 6.256 5.168 5.868 5.256 5.412L5.508 4.152C5.532 4.032 5.548 3.92 5.556 3.816C5.564 3.704 5.568 3.608 5.568 3.528C5.568 3.024 5.452 2.644 5.22 2.388C4.996 2.124 4.656 1.992 4.2 1.992ZM9.02775 2.664H10.7078L9.96375 6.408C9.93975 6.52 9.91975 6.632 9.90375 6.744C9.88775 6.856 9.87975 6.956 9.87975 7.044C9.87975 7.244 9.92775 7.404 10.0238 7.524C10.1198 7.644 10.2678 7.704 10.4678 7.704C10.6758 7.704 10.8598 7.652 11.0197 7.548C11.1878 7.436 11.3398 7.296 11.4758 7.128C11.6118 6.96 11.7278 6.776 11.8238 6.576C11.9278 6.368 12.0038 6.144 12.0518 5.904L12.6998 2.664H14.3798L13.3838 7.62H14.0918L13.8277 8.964H12.7118C12.4158 8.964 12.1638 8.884 11.9558 8.724C11.7558 8.564 11.6558 8.336 11.6558 8.04C11.6558 7.976 11.6598 7.908 11.6678 7.836C11.6758 7.764 11.6838 7.712 11.6918 7.68L11.7278 7.5H11.6558C11.4238 7.988 11.1478 8.38 10.8277 8.676C10.5078 8.964 10.1078 9.108 9.62775 9.108C9.15575 9.108 8.78775 8.964 8.52375 8.676C8.26775 8.388 8.13975 7.988 8.13975 7.476C8.13975 7.316 8.14775 7.164 8.16375 7.02C8.18775 6.876 8.21575 6.724 8.24775 6.564L9.02775 2.664ZM17.0681 1.968C16.7721 1.968 16.5521 1.912 16.4081 1.8C16.2721 1.688 16.2041 1.536 16.2041 1.344C16.2041 1.272 16.2121 1.192 16.2281 1.104C16.2441 1.016 16.2601 0.935997 16.2761 0.863997C16.3321 0.655997 16.4361 0.459996 16.5881 0.275996C16.7481 0.0919964 17.0281 -3.57628e-06 17.4281 -3.57628e-06C17.7241 -3.57628e-06 17.9401 0.0559964 18.0761 0.167996C18.2201 0.279996 18.2921 0.431996 18.2921 0.623996C18.2921 0.695996 18.2841 0.775996 18.2681 0.863997C18.2521 0.951997 18.2361 1.032 18.2201 1.104C18.1641 1.312 18.0561 1.508 17.8961 1.692C17.7441 1.876 17.4681 1.968 17.0681 1.968ZM17.2001 8.964H16.1081C15.7881 8.964 15.5281 8.876 15.3281 8.7C15.1281 8.524 15.0281 8.292 15.0281 8.004C15.0281 7.956 15.0321 7.908 15.0401 7.86C15.0481 7.812 15.0561 7.76 15.0641 7.704L16.0721 2.664H17.7521L16.7561 7.62H17.4641L17.2001 8.964ZM23.034 8.964H17.934L18.198 7.62L21.87 4.008H18.978L19.242 2.664H24.15L23.886 4.008L20.202 7.62H23.298L23.034 8.964ZM26.1443 6.324H25.4003L25.5323 2.916L25.9883 0.587997H27.8123L27.3563 2.916L26.1443 6.324ZM25.2203 9.108C24.8843 9.108 24.6443 9.044 24.5003 8.916C24.3643 8.78 24.2962 8.612 24.2962 8.412C24.2962 8.372 24.3002 8.324 24.3082 8.268C24.3162 8.204 24.3362 8.084 24.3682 7.908C24.4243 7.628 24.5483 7.408 24.7403 7.248C24.9403 7.08 25.2203 6.996 25.5803 6.996C25.9163 6.996 26.1523 7.064 26.2883 7.2C26.4323 7.328 26.5043 7.492 26.5043 7.692C26.5043 7.724 26.5003 7.772 26.4923 7.836C26.4923 7.9 26.4723 8.02 26.4323 8.196C26.3763 8.468 26.2483 8.688 26.0483 8.856C25.8563 9.024 25.5803 9.108 25.2203 9.108ZM36.8576 8.964H35.7416C35.4456 8.964 35.1936 8.884 34.9856 8.724C34.7856 8.564 34.6856 8.336 34.6856 8.04C34.6856 7.976 34.6896 7.908 34.6976 7.836C34.7056 7.764 34.7136 7.712 34.7216 7.68L34.7576 7.5H34.6856C34.4376 8.012 34.1576 8.408 33.8456 8.688C33.5336 8.968 33.1296 9.108 32.6336 9.108C32.2416 9.108 31.9216 9.016 31.6736 8.832C31.4256 8.64 31.2416 8.38 31.1216 8.052C31.0096 7.716 30.9536 7.34 30.9536 6.924C30.9536 6.668 30.9656 6.428 30.9896 6.204C31.0136 5.972 31.0456 5.748 31.0856 5.532C31.2136 4.908 31.4136 4.372 31.6856 3.924C31.9576 3.476 32.2816 3.132 32.6576 2.892C33.0416 2.644 33.4496 2.52 33.8816 2.52C34.3216 2.52 34.6816 2.64 34.9616 2.88C35.2496 3.12 35.4136 3.412 35.4536 3.756H35.5136L35.7296 2.664H37.4096L36.4136 7.62H37.1216L36.8576 8.964ZM33.4616 7.728C33.6776 7.728 33.8736 7.672 34.0496 7.56C34.2256 7.44 34.3776 7.304 34.5056 7.152C34.6416 6.992 34.7576 6.804 34.8536 6.588C34.9576 6.364 35.0336 6.136 35.0816 5.904L35.2736 4.944C35.3136 4.744 35.2976 4.568 35.2256 4.416C35.1536 4.256 35.0376 4.132 34.8776 4.044C34.7176 3.948 34.5216 3.9 34.2896 3.9C33.9216 3.9 33.6216 4.016 33.3896 4.248C33.1656 4.48 33.0056 4.832 32.9096 5.304L32.7416 6.144C32.7256 6.224 32.7096 6.336 32.6936 6.48C32.6776 6.616 32.6696 6.732 32.6696 6.828C32.6696 7.012 32.7016 7.172 32.7656 7.308C32.8296 7.444 32.9216 7.548 33.0416 7.62C33.1616 7.692 33.3016 7.728 33.4616 7.728ZM39.6755 8.964H37.9355L39.6155 0.587997H42.7715C43.6035 0.587997 44.2515 0.783997 44.7155 1.176C45.1795 1.568 45.4115 2.12 45.4115 2.832C45.4115 3.44 45.2715 3.976 44.9915 4.44C44.7115 4.904 44.3275 5.264 43.8395 5.52C43.3515 5.776 42.7915 5.904 42.1595 5.904H40.2875L39.6755 8.964ZM41.0435 2.124L40.5995 4.368H42.3875C42.6595 4.368 42.8955 4.296 43.0955 4.152C43.2955 4.008 43.4235 3.788 43.4795 3.492C43.5035 3.372 43.5235 3.268 43.5395 3.18C43.5635 3.084 43.5795 3.004 43.5875 2.94C43.6035 2.868 43.6115 2.812 43.6115 2.772C43.6115 2.588 43.5475 2.436 43.4195 2.316C43.2995 2.188 43.1075 2.124 42.8435 2.124H41.0435ZM47.3161 8.964H45.5761L47.2561 0.587997H50.4121C51.2441 0.587997 51.8921 0.783997 52.3561 1.176C52.8201 1.568 53.0521 2.12 53.0521 2.832C53.0521 3.44 52.9121 3.976 52.6321 4.44C52.3521 4.904 51.9681 5.264 51.4801 5.52C50.9921 5.776 50.4321 5.904 49.8001 5.904H47.9281L47.3161 8.964ZM48.6841 2.124L48.2401 4.368H50.0281C50.3001 4.368 50.5361 4.296 50.7361 4.152C50.9361 4.008 51.0641 3.788 51.1201 3.492C51.1441 3.372 51.1641 3.268 51.1801 3.18C51.2041 3.084 51.2201 3.004 51.2281 2.94C51.2441 2.868 51.2521 2.812 51.2521 2.772C51.2521 2.588 51.1881 2.436 51.0601 2.316C50.9401 2.188 50.7481 2.124 50.4841 2.124H48.6841ZM52.747 9.096C52.411 9.096 52.175 9.02 52.039 8.868C51.903 8.716 51.835 8.552 51.835 8.376C51.835 8.312 51.843 8.224 51.859 8.112C51.883 8 51.903 7.904 51.919 7.824C51.967 7.56 52.087 7.348 52.279 7.188C52.479 7.02 52.747 6.936 53.083 6.936C53.419 6.936 53.655 7.012 53.791 7.164C53.927 7.316 53.995 7.48 53.995 7.656C53.995 7.72 53.983 7.808 53.959 7.92C53.943 8.024 53.927 8.12 53.911 8.208C53.863 8.472 53.739 8.688 53.539 8.856C53.347 9.016 53.083 9.096 52.747 9.096Z" fill="currentColor"/>
</svg>

<svg xmlns="http://www.w3.org/2000/svg" width="54" height="12" fill="none" viewBox="0 0 54 12">
  <path fill="currentColor" d="m4.836 9.744-.264 1.416h-1.32q-.72 0-1.008-.288-.288-.276-.288-.792 0-.156.024-.312t.06-.324L2.136 9q-.6-.168-1.092-.564a2.9 2.9 0 0 1-.768-1.08Q0 6.672 0 5.712q0-.348.036-.672.036-.336.096-.66a5.7 5.7 0 0 1 .54-1.56 5 5 0 0 1 .924-1.248q.552-.54 1.236-.828.696-.3 1.488-.3.804 0 1.488.36.684.348 1.104 1.104.42.744.42 1.932 0 .336-.036.672a9 9 0 0 1-.096.66 6 6 0 0 1-.48 1.416q-.312.66-.78 1.176a4.3 4.3 0 0 1-1.056.852q-.576.336-1.248.444l-.132.684zM4.2 1.992q-.552 0-.984.252a2.04 2.04 0 0 0-.72.732 4 4 0 0 0-.42 1.164L1.824 5.4q-.036.18-.048.336t-.012.288q0 .756.336 1.152.348.384 1.032.384.564 0 .984-.252.432-.252.72-.732t.42-1.164l.252-1.26q.036-.18.048-.336a4 4 0 0 0 .012-.288q0-.756-.348-1.14-.336-.396-1.02-.396m4.828.672h1.68l-.744 3.744a5 5 0 0 0-.06.336 2 2 0 0 0-.024.3q0 .3.144.48t.444.18a1 1 0 0 0 .552-.156q.252-.168.456-.42t.348-.552q.156-.312.228-.672l.648-3.24h1.68l-.996 4.956h.708l-.264 1.344h-1.116q-.444 0-.756-.24-.3-.24-.3-.684a2 2 0 0 1 .036-.36l.036-.18h-.072q-.348.732-.828 1.176-.48.432-1.2.432-.708 0-1.104-.432-.384-.432-.384-1.2 0-.24.024-.456.036-.216.084-.456zm8.04-.696q-.444 0-.66-.168a.56.56 0 0 1-.204-.456q0-.108.024-.24a6 6 0 0 1 .048-.24q.084-.312.312-.588.24-.276.84-.276.444 0 .648.168a.55.55 0 0 1 .216.456q0 .108-.024.24a6 6 0 0 1-.048.24 1.5 1.5 0 0 1-.324.588q-.228.276-.828.276m.132 6.996h-1.092q-.48 0-.78-.264a.88.88 0 0 1-.3-.696q0-.072.012-.144l.024-.156 1.008-5.04h1.68l-.996 4.956h.708zm5.834 0h-5.1l.264-1.344 3.672-3.612h-2.892l.264-1.344h4.908l-.264 1.344-3.684 3.612h3.096zm3.11-2.64H25.4l.132-3.408.456-2.328h1.824l-.456 2.328zm-.924 2.784q-.504 0-.72-.192a.69.69 0 0 1-.204-.504q0-.06.012-.144.012-.096.06-.36.084-.42.372-.66.3-.252.84-.252.504 0 .708.204a.63.63 0 0 1 .216.492q0 .048-.012.144 0 .096-.06.36a1.13 1.13 0 0 1-.384.66q-.288.252-.828.252m11.638-.144h-1.116q-.444 0-.756-.24-.3-.24-.3-.684a2 2 0 0 1 .036-.36l.036-.18h-.072q-.372.768-.84 1.188t-1.212.42q-.588 0-.96-.276a1.7 1.7 0 0 1-.552-.78 3.6 3.6 0 0 1-.168-1.128q0-.384.036-.72.036-.348.096-.672.192-.936.6-1.608t.972-1.032a2.2 2.2 0 0 1 1.224-.372q.66 0 1.08.36.432.36.492.876h.06l.216-1.092h1.68l-.996 4.956h.708zm-3.396-1.236q.324 0 .588-.168.264-.18.456-.408.204-.24.348-.564.156-.336.228-.684l.192-.96a.83.83 0 0 0-.048-.528.8.8 0 0 0-.348-.372 1.1 1.1 0 0 0-.588-.144q-.552 0-.9.348-.336.348-.48 1.056l-.168.84q-.024.12-.048.336a3 3 0 0 0-.024.348q0 .276.096.48t.276.312a.8.8 0 0 0 .42.108m6.213 1.236h-1.74l1.68-8.376h3.157q1.247 0 1.944.588.695.588.695 1.656 0 .912-.42 1.608T43.84 5.52q-.734.384-1.68.384h-1.872zm1.369-6.84L40.6 4.368h1.788q.408 0 .708-.216t.384-.66l.06-.312a2 2 0 0 0 .047-.24 1 1 0 0 0 .024-.168.6.6 0 0 0-.191-.456q-.18-.192-.577-.192zm6.272 6.84h-1.74l1.68-8.376h3.156q1.248 0 1.944.588t.696 1.656q0 .912-.42 1.608T51.48 5.52t-1.68.384h-1.872zm1.368-6.84-.444 2.244h1.788q.408 0 .708-.216t.384-.66l.06-.312a2 2 0 0 0 .048-.24 1 1 0 0 0 .024-.168.6.6 0 0 0-.192-.456q-.18-.192-.576-.192zm4.063 6.972q-.504 0-.708-.228a.73.73 0 0 1-.204-.492q0-.096.024-.264l.06-.288q.072-.396.36-.636.3-.252.804-.252t.708.228a.73.73 0 0 1 .204.492q0 .096-.036.264-.024.156-.048.288a1.07 1.07 0 0 1-.372.648q-.288.24-.792.24"/>
</svg>
